src/lib/packages/icons/src/assets/filled/shield-slash.svg

<svg width="24" height="24" viewBox="0 0 24 24" fill="none" xmlns="http://www.w3.org/2000/svg">
<path d="M21 8.20703V10.8899C21 17.5599 15.33 20.89 12 22C10.982 21.658 9.74897 21.115 8.52297 20.332C8.25597 20.162 8.22112 19.7799 8.44412 19.5559L20.146 7.854C20.461 7.539 21 7.76203 21 8.20703ZM21.5301 2.46997C21.2371 2.17697 20.762 2.17697 20.469 2.46997L18.4961 4.44312C15.3291 3.65912 13.8031 2.901 12.0191 2C9.77907 3.11 7.99905 4 2.99905 5C2.99905 6.14 2.99905 9.69989 2.99905 10.8899C2.99905 13.6609 3.99193 15.8581 5.37893 17.5591L2.46804 20.47C2.17504 20.763 2.17504 21.238 2.46804 21.531C2.61404 21.677 2.80607 21.751 2.99807 21.751C3.19007 21.751 3.3821 21.678 3.5281 21.531L21.5281 3.53101C21.8231 3.23701 21.8231 2.76297 21.5301 2.46997Z" fill="currentColor"/>
</svg>

<svg xmlns="http://www.w3.org/2000/svg" width="24" height="24" fill="none"><path fill="currentColor" d="M21 8.207v2.683c0 6.67-5.67 10-9 11.11a16.085 16.085 0 0 1-3.477-1.668.504.504 0 0 1-.079-.776L20.146 7.854a.5.5 0 0 1 .854.353Zm.53-5.737a.75.75 0 0 0-1.061 0l-1.973 1.973C15.33 3.66 13.803 2.901 12.02 2 9.78 3.11 8 4 3 5v5.89c0 2.77.993 4.968 2.38 6.67l-2.911 2.91a.75.75 0 0 0 1.06 1.061l18-18a.748.748 0 0 0 .002-1.061Z"/></svg>
